source/img/logo-pink-white-mobile.svg

<svg version="1" xmlns="http://www.w3.org/2000/svg" width="75" height="23" viewBox="0 0 75 23"><g fill="#fff"><path d="M0 1.449c0-.708.58-1.288 1.256-1.288h7.18c5.087 0 8.436 2.704 8.436 7.147v.064c0 4.861-4.057 7.373-8.854 7.373h-5.474v6.825c0 .708-.58 1.288-1.288 1.288-.676.001-1.256-.579-1.256-1.287v-20.122zm8.114 10.979c3.734 0 6.182-1.996 6.182-4.958v-.065c0-3.22-2.415-4.894-6.054-4.894h-5.698v9.917h5.57zM21.729 1.288c0-.708.579-1.288 1.254-1.288.709 0 1.288.58 1.288 1.288v20.283c0 .708-.579 1.288-1.288 1.288-.676 0-1.255-.58-1.255-1.288v-20.283zM30.87 1.32c0-.676.579-1.256 1.256-1.256h.354c.58 0 .934.29 1.288.74l13.684 17.45v-16.998c-.001-.676.546-1.256 1.255-1.256.676 0 1.223.58 1.223 1.256v20.348c0 .676-.482 1.191-1.158 1.191h-.129c-.548 0-.934-.322-1.32-.772l-13.974-17.87v17.45c0 .676-.547 1.256-1.255 1.256-.677 0-1.224-.58-1.224-1.256v-20.283zM56.3 1.288c0-.708.579-1.288 1.256-1.288.708 0 1.287.58 1.287 1.288v12.331l12.846-13.168c.29-.258.58-.451.999-.451.676 0 1.224.612 1.224 1.256 0 .354-.161.644-.419.901l-7.984 7.92 8.564 10.561c.225.29.354.547.354.934 0 .676-.579 1.288-1.287 1.288-.483 0-.806-.258-1.03-.58l-8.403-10.463-4.862 4.861v4.894c0 .708-.579 1.288-1.287 1.288-.677 0-1.256-.58-1.256-1.288v-20.284z"/></g></svg>

<svg version="1" xmlns="http://www.w3.org/2000/svg" width="75" height="23"><path d="M0 1.449C0 .741.58.161 1.256.161h7.18c5.087 0 8.436 2.704 8.436 7.147v.064c0 4.861-4.057 7.373-8.854 7.373H2.544v6.825c0 .708-.58 1.288-1.288 1.288C.58 22.859 0 22.279 0 21.571V1.449zm8.114 10.979c3.734 0 6.182-1.996 6.182-4.958v-.065c0-3.22-2.415-4.894-6.054-4.894H2.544v9.917h5.57zm13.615-11.14C21.729.58 22.308 0 22.983 0c.709 0 1.288.58 1.288 1.288v20.283c0 .708-.579 1.288-1.288 1.288-.676 0-1.255-.58-1.255-1.288V1.288zm9.141.032c0-.676.579-1.256 1.256-1.256h.354c.58 0 .934.29 1.288.74l13.684 17.45V1.256A1.256 1.256 0 0 1 48.707 0c.676 0 1.223.58 1.223 1.256v20.348c0 .676-.482 1.191-1.158 1.191h-.129c-.548 0-.934-.322-1.32-.772L33.349 4.153v17.45c0 .676-.547 1.256-1.255 1.256-.677 0-1.224-.58-1.224-1.256V1.32zm25.43-.032C56.3.58 56.879 0 57.556 0c.708 0 1.287.58 1.287 1.288v12.331L71.689.451c.29-.258.58-.451.999-.451.676 0 1.224.612 1.224 1.256 0 .354-.161.644-.419.901l-7.984 7.92 8.564 10.561c.225.29.354.547.354.934 0 .676-.579 1.288-1.287 1.288-.483 0-.806-.258-1.03-.58l-8.403-10.463-4.862 4.861v4.894c0 .708-.579 1.288-1.287 1.288-.677 0-1.256-.58-1.256-1.288V1.288z" fill="#fff"/></svg>
